;FLAVOR:Marlin
;TIME:10639
;Filament used: 4.34158m
;Layer height: 0.1
;MINX:99.701
;MINY:99.701
;MINZ:0.3
;MAXX:120.299
;MAXY:120.299
;MAXZ:56
;Generated with Cura_SteamEngine 4.4.1
M140 S60
M105
M190 S60
M104 S200
M105
M109 S200
M82 ;absolute extrusion mode
G21 ;metric values
G90 ;absolute positioning
M82 ;set extruder to absolute mode
M107 ;start with the fan off
G28 X0 Y0 ;move X/Y to min endstops
G28 Z0 ;move Z to min endstops
M84 ;steppers off
M0 S12 ;wait 12 seconds
M17 ;turn steppers on
G1 Z10.0 F300 ;move the platform down 10mm
G92 E0 ;zero the extruded length
G1 F200 E8 ;extrude 8mm of feed stock
G92 E0 ;zero the extruded length again
M0 S5 ;wait 5 seconds
G1 F9000
M117 Printing...
G92 E0
G92 E0
G1 F1500 E-6.5
;LAYER_COUNT:558
;LAYER:0
M107
G0 F3600 X103.027 Y102.992 Z0.3
;TYPE:SKIRT
G1 F1500 E0
G1 X103.57 Y102.501 E0.03652
G1 X103.885 Y102.242 E0.05687
G1 X104.52 Y101.772 E0.09628
G1 X105.156 Y101.391 E0.13327
G1 X105.52 Y101.196 E0.15387
G1 X106.234 Y100.859 E0.19326
G1 X106.939 Y100.608 E0.2306
G1 X107.328 Y100.49 E0.25088
G1 X108.094 Y100.299 E0.29026
G1 X108.829 Y100.191 E0.32733
G1 X109.236 Y100.151 E0.34773
G1 X110.025 Y100.114 E0.38714
G1 X110.813 Y100.157 E0.42651
G1 X111.529 Y100.265 E0.46263
G1 X112.329 Y100.425 E0.50334
G1 X113.094 Y100.619 E0.54271
G1 X113.836 Y100.89 E0.58212
G1 X114.469 Y101.191 E0.61709
G1 X114.831 Y101.384 E0.63756
G1 X115.508 Y101.79 E0.67694
G1 X116.111 Y102.239 E0.71445
G1 X116.424 Y102.496 E0.73465
G1 X117.008 Y103.027 E0.77403
G1 X117.499 Y103.57 E0.81056
G1 X117.758 Y103.885 E0.8309
G1 X118.228 Y104.52 E0.87032
G1 X118.609 Y105.156 E0.9073
G1 X118.804 Y105.52 E0.92791
G1 X119.141 Y106.234 E0.9673
G1 X119.391 Y106.933 E1.00433
G1 X119.509 Y107.321 E1.02457
G1 X119.7 Y108.088 E1.064
G1 X119.809 Y108.828 E1.10132
G1 X119.849 Y109.235 E1.12172
G1 X119.886 Y110.024 E1.16113
G1 X119.849 Y110.755 E1.19764
G1 X119.809 Y111.165 E1.21819
G1 X119.693 Y111.946 E1.25759
G1 X119.51 Y112.672 E1.29494
G1 X119.392 Y113.061 E1.31522
G1 X119.125 Y113.804 E1.35461
G1 X118.807 Y114.473 E1.39156
G1 X118.613 Y114.836 E1.4121
G1 X118.206 Y115.513 E1.45151
G1 X117.761 Y116.112 E1.48874
G1 X117.503 Y116.426 E1.50901
G1 X116.971 Y117.01 E1.54842
G1 X116.43 Y117.499 E1.58481
G1 X116.115 Y117.758 E1.60515
G1 X115.48 Y118.228 E1.64457
G1 X114.844 Y118.609 E1.68155
G1 X114.48 Y118.804 E1.70216
G1 X113.766 Y119.141 E1.74155
G1 X113.061 Y119.392 E1.77888
G1 X112.672 Y119.51 E1.79916
G1 X111.906 Y119.701 E1.83855
G1 X111.18 Y119.808 E1.87516
G1 X110.798 Y119.846 E1.89431
G1 X110.009 Y119.884 E1.93372
G1 X109.346 Y119.854 E1.96683
G1 X108.912 Y119.816 E1.98857
G1 X108.129 Y119.708 E2.028
G1 X107.328 Y119.51 E2.06917
G1 X106.939 Y119.392 E2.08945
G1 X106.196 Y119.125 E2.12884
G1 X105.52 Y118.804 E2.16617
G1 X105.156 Y118.609 E2.18677
G1 X104.479 Y118.201 E2.22621
G1 X103.885 Y117.758 E2.26318
G1 X103.57 Y117.499 E2.28352
G1 X102.986 Y116.967 E2.32293
G1 X102.497 Y116.426 E2.35932
G1 X102.239 Y116.112 E2.37959
G1 X101.77 Y115.477 E2.41898
G1 X101.387 Y114.836 E2.45623
G1 X101.193 Y114.473 E2.47676
G1 X100.856 Y113.759 E2.51615
G1 X100.608 Y113.061 E2.55311
G1 X100.49 Y112.672 E2.57339
G1 X100.299 Y111.906 E2.61278
G1 X100.192 Y111.173 E2.64973
G1 X100.152 Y110.767 E2.67009
G1 X100.114 Y109.978 E2.7095
G1 X100.151 Y109.246 E2.74606
G1 X100.191 Y108.835 E2.76666
G1 X100.307 Y108.054 E2.80606
G1 X100.491 Y107.321 E2.84376
G1 X100.609 Y106.933 E2.86399
G1 X100.877 Y106.191 E2.90335
G1 X101.196 Y105.52 E2.94042
G1 X101.391 Y105.156 E2.96102
G1 X101.799 Y104.479 E3.00046
G1 X102.239 Y103.889 E3.03718
G1 X102.496 Y103.576 E3.05738
G1 X103.027 Y102.992 E3.09676
G0 F3600 X103.323 Y103.262
G1 F1500 X103.824 Y102.81 E3.13042
G1 X104.139 Y102.551 E3.15077
G1 X104.758 Y102.094 E3.18916
G1 X105.345 Y101.744 E3.22325
G1 X105.709 Y101.549 E3.24385
G1 X106.405 Y101.222 E3.28222
G1 X107.055 Y100.991 E3.31663
G1 X107.444 Y100.873 E3.33691
G1 X108.191 Y100.688 E3.37531
G1 X108.868 Y100.589 E3.40944
G1 X109.275 Y100.549 E3.42985
G1 X110.044 Y100.514 E3.46825
G1 X110.811 Y100.559 E3.50658
G1 X111.45 Y100.658 E3.53884
G1 X112.25 Y100.818 E3.57955
G1 X112.996 Y101.008 E3.61795
G1 X113.717 Y101.274 E3.65629
G1 X114.28 Y101.544 E3.68744
G1 X114.642 Y101.737 E3.70791
G1 X115.301 Y102.134 E3.74629
G1 X115.857 Y102.548 E3.78088
G1 X116.17 Y102.805 E3.80108
G1 X116.738 Y103.323 E3.83944
G1 X117.19 Y103.824 E3.8731
G1 X117.449 Y104.139 E3.89344
G1 X117.906 Y104.758 E3.93183
G1 X118.256 Y105.345 E3.96593
G1 X118.451 Y105.709 E3.98653
G1 X118.778 Y106.405 E4.02489
G1 X119.008 Y107.05 E4.05906
G1 X119.126 Y107.438 E4.07929
G1 X119.311 Y108.184 E4.11764
G1 X119.411 Y108.867 E4.15207
G1 X119.451 Y109.274 E4.17248
G1 X119.486 Y110.043 E4.21088
G1 X119.451 Y110.717 E4.24455
G1 X119.411 Y111.127 E4.26511
G1 X119.297 Y111.887 E4.30345
G1 X119.127 Y112.556 E4.33788
G1 X119.009 Y112.945 E4.35817
G1 X118.748 Y113.669 E4.39656
G1 X118.454 Y114.285 E4.43061
G1 X118.26 Y114.648 E4.45115
G1 X117.863 Y115.307 E4.48953
G1 X117.452 Y115.858 E4.52383
G1 X117.194 Y116.172 E4.5441
G1 X116.675 Y116.74 E4.58249
G1 X116.176 Y117.19 E4.61601
G1 X115.861 Y117.449 E4.63636
G1 X115.242 Y117.906 E4.67474
G1 X114.655 Y118.256 E4.70884
G1 X114.291 Y118.451 E4.72944
G1 X113.595 Y118.778 E4.76781
G1 X112.945 Y119.009 E4.80222
G1 X112.556 Y119.127 E4.8225
G1 X111.809 Y119.312 E4.8609
G1 X111.141 Y119.41 E4.89458
G1 X110.759 Y119.448 E4.91373
G1 X109.99 Y119.484 E4.95214
G1 X109.381 Y119.456 E4.98255
G1 X108.947 Y119.418 E5.00429
G1 X108.185 Y119.311 E5.04268
G1 X107.444 Y119.127 E5.08077
G1 X107.055 Y119.009 E5.10105
G1 X106.331 Y118.748 E5.13945
G1 X105.709 Y118.451 E5.17383
G1 X105.345 Y118.256 E5.19444
G1 X104.686 Y117.858 E5.23284
G1 X104.139 Y117.449 E5.26692
G1 X103.824 Y117.19 E5.28726
G1 X103.256 Y116.671 E5.32565
G1 X102.806 Y116.172 E5.35917
G1 X102.548 Y115.858 E5.37945
G1 X102.092 Y115.239 E5.41781
G1 X101.74 Y114.648 E5.45212
G1 X101.546 Y114.285 E5.47266
G1 X101.219 Y113.589 E5.51102
G1 X100.991 Y112.945 E5.54511
G1 X100.873 Y112.556 E5.56539
G1 X100.688 Y111.809 E5.60378
G1 X100.59 Y111.134 E5.63781
G1 X100.55 Y110.728 E5.65816
G1 X100.514 Y109.959 E5.69657
G1 X100.549 Y109.285 E5.73024
G1 X100.589 Y108.874 E5.75084
G1 X100.703 Y108.114 E5.78919
G1 X100.874 Y107.438 E5.82397
G1 X100.992 Y107.05 E5.84421
G1 X101.254 Y106.327 E5.88257
G1 X101.549 Y105.709 E5.91674
G1 X101.744 Y105.345 E5.93734
G1 X102.142 Y104.686 E5.97575
G1 X102.548 Y104.143 E6.00957
G1 X102.805 Y103.83 E6.02978
G1 X103.323 Y103.262 E6.06813
G0 F3600 X103.619 Y103.532
G1 F1500 X104.078 Y103.119 E6.09894
G1 X104.393 Y102.86 E6.11928
G1 X104.996 Y102.416 E6.15664
G1 X105.533 Y102.097 E6.1878
G1 X105.897 Y101.902 E6.2084
G1 X106.575 Y101.584 E6.24576
G1 X107.171 Y101.373 E6.27731
G1 X107.56 Y101.255 E6.29759
G1 X108.286 Y101.077 E6.33488
G1 X108.907 Y100.988 E6.36618
G1 X109.314 Y100.948 E6.38658
G1 X110.062 Y100.914 E6.42394
G1 X110.808 Y100.961 E6.46123
G1 X111.372 Y101.05 E6.48972
G1 X112.172 Y101.21 E6.53042
G1 X112.896 Y101.396 E6.56771
G1 X113.597 Y101.658 E6.60505
G1 X114.092 Y101.897 E6.63247
G1 X114.454 Y102.09 E6.65294
G1 X115.095 Y102.477 E6.6903
G1 X115.603 Y102.857 E6.72195
G1 X115.916 Y103.114 E6.74215
G1 X116.468 Y103.619 E6.77948
G1 X116.881 Y104.078 E6.81028
G1 X117.14 Y104.393 E6.83063
G1 X117.584 Y104.996 E6.86799
G1 X117.903 Y105.533 E6.89915
G1 X118.098 Y105.897 E6.91975
G1 X118.416 Y106.575 E6.95711
G1 X118.625 Y107.166 E6.98839
G1 X118.743 Y107.554 E7.00862
G1 X118.922 Y108.281 E7.04597
G1 X119.012 Y108.906 E7.07747
G1 X119.052 Y109.313 E7.09788
G1 X119.086 Y110.061 E7.13523
G1 X119.053 Y110.678 E7.16606
G1 X119.013 Y111.088 E7.18661
G1 X118.901 Y111.827 E7.2239
G1 X118.745 Y112.44 E7.25546
G1 X118.627 Y112.829 E7.27574
G1 X118.372 Y113.532 E7.31305
G1 X118.102 Y114.096 E7.34425
G1 X117.908 Y114.459 E7.36478
G1 X117.52 Y115.099 E7.40212
G1 X117.142 Y115.604 E7.43359
G1 X116.884 Y115.918 E7.45386
G1 X116.379 Y116.47 E7.49119
G1 X115.922 Y116.881 E7.52185
G1 X115.607 Y117.14 E7.5422
G1 X115.004 Y117.584 E7.57956
G1 X114.467 Y117.903 E7.61072
G1 X114.103 Y118.098 E7.63132
G1 X113.425 Y118.416 E7.66868
G1 X112.829 Y118.627 E7.70023
G1 X112.44 Y118.745 E7.72051
G1 X111.714 Y118.923 E7.7578
G1 X111.101 Y119.012 E7.7887
G1 X110.719 Y119.05 E7.80786
G1 X109.972 Y119.084 E7.84516
G1 X109.415 Y119.057 E7.87298
G1 X108.981 Y119.019 E7.89472
G1 X108.241 Y118.914 E7.93201
G1 X107.56 Y118.745 E7.96701
G1 X107.171 Y118.627 E7.98729
G1 X106.468 Y118.372 E8.0246
G1 X105.897 Y118.098 E8.0562
G1 X105.533 Y117.903 E8.0768
G1 X104.894 Y117.515 E8.1141
G1 X104.393 Y117.14 E8.14532
G1 X104.078 Y116.881 E8.16567
G1 X103.527 Y116.376 E8.20295
G1 X103.116 Y115.918 E8.23365
G1 X102.858 Y115.604 E8.25393
G1 X102.414 Y115.001 E8.29129
G1 X102.092 Y114.459 E8.32274
G1 X101.898 Y114.096 E8.34328
G1 X101.582 Y113.419 E8.38055
G1 X101.373 Y112.829 E8.41178
G1 X101.255 Y112.44 E8.43206
G1 X101.077 Y111.714 E8.46935
G1 X100.988 Y111.094 E8.5006
G1 X100.948 Y110.688 E8.52095
G1 X100.914 Y109.941 E8.55826
G1 X100.947 Y109.324 E8.58909
G1 X100.987 Y108.913 E8.60969
G1 X101.099 Y108.173 E8.64703
G1 X101.257 Y107.554 E8.6789
G1 X101.375 Y107.166 E8.69913
G1 X101.63 Y106.463 E8.73644
G1 X101.902 Y105.897 E8.76777
G1 X102.097 Y105.533 E8.78837
G1 X102.485 Y104.894 E8.82567
G1 X102.857 Y104.397 E8.85664
G1 X103.114 Y104.084 E8.87685
G1 X103.619 Y103.532 E8.91417
G0 F3600 X103.914 Y103.803
G1 F1500 X104.332 Y103.428 E8.94219
G1 X104.647 Y103.169 E8.96253
G1 X105.233 Y102.739 E8.9988
G1 X105.722 Y102.449 E9.02716
G1 X106.086 Y102.254 E9.04776
G1 X106.745 Y101.947 E9.08403
G1 X107.287 Y101.756 E9.1127
G1 X107.676 Y101.638 E9.13298
G1 X108.382 Y101.466 E9.16923
G1 X108.946 Y101.386 E9.19765
G1 X109.353 Y101.346 E9.21806
G1 X110.079 Y101.314 E9.25431
G1 X110.804 Y101.363 E9.29057
G1 X111.293 Y101.442 E9.31528
G1 X112.093 Y101.602 E9.35598
G1 X112.797 Y101.784 E9.39226
G1 X113.476 Y102.041 E9.42848
G1 X113.904 Y102.25 E9.45224
G1 X114.266 Y102.443 E9.47271
G1 X114.887 Y102.82 E9.50895
G1 X115.349 Y103.166 E9.53775
G1 X115.662 Y103.423 E9.55795
G1 X116.197 Y103.914 E9.59418
G1 X116.572 Y104.332 E9.6222
G1 X116.831 Y104.647 E9.64254
G1 X117.261 Y105.233 E9.67881
G1 X117.551 Y105.722 E9.70717
G1 X117.746 Y106.086 E9.72777
G1 X118.053 Y106.745 E9.76404
G1 X118.242 Y107.283 E9.79249
G1 X118.36 Y107.671 E9.81272
G1 X118.533 Y108.376 E9.84894
G1 X118.614 Y108.945 E9.87761
G1 X118.654 Y109.352 E9.89802
G1 X118.686 Y110.078 E9.93427
G1 X118.655 Y110.639 E9.9623
G1 X118.615 Y111.049 E9.98286
G1 X118.505 Y111.767 E10.0191
G1 X118.362 Y112.324 E10.04779
G1 X118.244 Y112.713 E10.06807
G1 X117.995 Y113.395 E10.10429
G1 X117.749 Y113.908 E10.13267
G1 X117.555 Y114.271 E10.15321
G1 X117.178 Y114.892 E10.18945
G1 X116.833 Y115.35 E10.21806
G1 X116.575 Y115.664 E10.23833
G1 X116.084 Y116.199 E10.27456
G1 X115.668 Y116.572 E10.30244
G1 X115.353 Y116.831 E10.32278
G1 X114.767 Y117.261 E10.35904
G1 X114.278 Y117.551 E10.38741
G1 X113.914 Y117.746 E10.40801
G1 X113.255 Y118.053 E10.44428
G1 X112.713 Y118.244 E10.47295
G1 X112.324 Y118.362 E10.49323
G1 X111.618 Y118.534 E10.52948
G1 X111.061 Y118.614 E10.55756
G1 X110.679 Y118.652 E10.57671
G1 X109.954 Y118.684 E10.61292
G1 X109.45 Y118.659 E10.63809
G1 X109.016 Y118.621 E10.65983
G1 X108.297 Y118.518 E10.69606
G1 X107.676 Y118.362 E10.72801
G1 X107.287 Y118.244 E10.74829
G1 X106.605 Y117.995 E10.78451
G1 X106.086 Y117.746 E10.81323
G1 X105.722 Y117.551 E10.83383
G1 X105.102 Y117.173 E10.87006
G1 X104.647 Y116.831 E10.89846
G1 X104.332 Y116.572 E10.9188
G1 X103.797 Y116.081 E10.95503
G1 X103.425 Y115.664 E10.98291
G1 X103.167 Y115.35 E11.00318
G1 X102.737 Y114.764 E11.03945
G1 X102.445 Y114.271 E11.06803
G1 X102.251 Y113.908 E11.08857
G1 X101.945 Y113.249 E11.12482
G1 X101.756 Y112.713 E11.15317
G1 X101.638 Y112.324 E11.17345
G1 X101.466 Y111.618 E11.2097
G1 X101.386 Y111.055 E11.23807
G1 X101.346 Y110.649 E11.25843
G1 X101.314 Y109.923 E11.29468
G1 X101.345 Y109.363 E11.32266
G1 X101.385 Y108.952 E11.34327
G1 X101.495 Y108.234 E11.37951
G1 X101.64 Y107.671 E11.40851
G1 X101.758 Y107.283 E11.42874
G1 X102.007 Y106.6 E11.46501
G1 X102.254 Y106.086 E11.49346
G1 X102.449 Y105.722 E11.51406
G1 X102.827 Y105.102 E11.55029
G1 X103.166 Y104.651 E11.57844
G1 X103.423 Y104.338 E11.59865
G1 X103.914 Y103.803 E11.63487
G0 F3600 X104.209 Y104.074
G1 F1500 X104.586 Y103.737 E11.6601
G1 X104.901 Y103.478 E11.68045
G1 X105.47 Y103.062 E11.71561
G1 X105.911 Y102.802 E11.74115
G1 X106.275 Y102.607 E11.76175
G1 X106.914 Y102.31 E11.79691
G1 X107.403 Y102.139 E11.82275
G1 X107.792 Y102.021 E11.84303
G1 X108.476 Y101.855 E11.87815
G1 X108.986 Y101.784 E11.90384
G1 X109.393 Y101.744 E11.92424
G1 X110.096 Y101.715 E11.95935
G1 X110.798 Y101.766 E11.99446
G1 X111.215 Y101.834 E12.01554
G1 X112.015 Y101.994 E12.05624
G1 X112.696 Y102.171 E12.09135
G1 X113.353 Y102.425 E12.12649
G1 X113.716 Y102.603 E12.14666
G1 X114.078 Y102.796 E12.16713
G1 X114.679 Y103.162 E12.20223
G1 X115.095 Y103.475 E12.2282
G1 X115.408 Y103.732 E12.24841
G1 X115.926 Y104.209 E12.28354
G1 X116.263 Y104.586 E12.30877
G1 X116.522 Y104.901 E12.32911
G1 X116.938 Y105.47 E12.36428
G1 X117.198 Y105.911 E12.38982
G1 X117.393 Y106.275 E12.41042
G1 X117.69 Y106.914 E12.44558
G1 X117.86 Y107.399 E12.47122
G1 X117.978 Y107.787 E12.49145
G1 X118.144 Y108.471 E12.52657
G1 X118.216 Y108.985 E12.55246
G1 X118.256 Y109.392 E12.57286
G1 X118.285 Y110.095 E12.60797
G1 X118.257 Y110.6 E12.6332
G1 X118.217 Y111.01 E12.65375
G1 X118.109 Y111.706 E12.68889
G1 X117.979 Y112.208 E12.71476
G1 X117.861 Y112.597 E12.73504
G1 X117.619 Y113.258 E12.77016
G1 X117.396 Y113.719 E12.79571
G1 X117.202 Y114.082 E12.81624
G1 X116.836 Y114.683 E12.85135
G1 X116.524 Y115.096 E12.87717
G1 X116.266 Y115.41 E12.89745
G1 X115.789 Y115.928 E12.93258
G1 X115.414 Y116.263 E12.95767
G1 X115.099 Y116.522 E12.97801
G1 X114.53 Y116.938 E13.01318
G1 X114.089 Y117.198 E13.03872
G1 X113.725 Y117.393 E13.05932
G1 X113.086 Y117.69 E13.09447
G1 X112.597 Y117.861 E13.12032
G1 X112.208 Y117.979 E13.1406
G1 X111.524 Y118.145 E13.17571
G1 X111.022 Y118.216 E13.20101
G1 X110.64 Y118.254 E13.22016
G1 X109.936 Y118.283 E13.25531
G1 X109.485 Y118.26 E13.27784
G1 X109.051 Y118.222 E13.29958
G1 X108.355 Y118.121 E13.33467
G1 X107.792 Y117.979 E13.36363
G1 X107.403 Y117.861 E13.38391
G1 X106.742 Y117.619 E13.41903
G1 X106.275 Y117.393 E13.44492
G1 X105.911 Y117.198 E13.46552
G1 X105.311 Y116.831 E13.50061
G1 X104.901 Y116.522 E13.52622
G1 X104.586 Y116.263 E13.54657
G1 X104.069 Y115.786 E13.58166
G1 X103.734 Y115.41 E13.60679
G1 X103.476 Y115.096 E13.62706
G1 X103.06 Y114.528 E13.66219
G1 X102.798 Y114.082 E13.68799
G1 X102.604 Y113.719 E13.70853
G1 X102.308 Y113.081 E13.74361
G1 X102.139 Y112.597 E13.76919
G1 X102.021 Y112.208 E13.78947
G1 X101.855 Y111.524 E13.82459
G1 X101.784 Y111.016 E13.85018
G1 X101.744 Y110.61 E13.87053
G1 X101.715 Y109.907 E13.90563
G1 X101.743 Y109.401 E13.93092
G1 X101.783 Y108.99 E13.95152
G1 X101.891 Y108.295 E13.98661
G1 X102.022 Y107.787 E14.01278
G1 X102.14 Y107.399 E14.03301
G1 X102.383 Y106.738 E14.06815
G1 X102.607 Y106.275 E14.09381
G1 X102.802 Y105.911 E14.11441
G1 X103.169 Y105.311 E14.1495
G1 X103.475 Y104.905 E14.17487
G1 X103.732 Y104.592 E14.19507
G1 X104.209 Y104.074 E14.2302
G0 F3600 X104.504 Y104.345
G1 F1500 X104.84 Y104.046 E14.25264
G1 X105.155 Y103.787 E14.27299
G1 X105.706 Y103.386 E14.30699
G1 X106.1 Y103.154 E14.3298
G1 X106.464 Y102.959 E14.3504
G1 X107.082 Y102.674 E14.38435
G1 X107.519 Y102.522 E14.40744
G1 X107.908 Y102.404 E14.42772
G1 X108.57 Y102.245 E14.46168
G1 X109.025 Y102.182 E14.4846
G1 X109.432 Y102.142 E14.505
G1 X110.112 Y102.115 E14.53895
G1 X110.791 Y102.168 E14.57293
G1 X111.136 Y102.227 E14.59039
G1 X111.936 Y102.387 E14.6311
G1 X112.595 Y102.559 E14.66508
G1 X113.528 Y102.956 E14.71566
G1 X113.89 Y103.149 E14.73613
G1 X114.471 Y103.504 E14.7701
G1 X114.842 Y103.784 E14.79329
G1 X115.155 Y104.041 E14.81349
G1 X115.655 Y104.504 E14.84749
G1 X115.954 Y104.84 E14.86993
G1 X116.213 Y105.155 E14.89027
