;FLAVOR:Marlin
;TIME:9813
;Filament used: 4.03168m
;Layer height: 0.1
;MINX:91.7
;MINY:91.7
;MINZ:0.3
;MAXX:128.3
;MAXY:128.3
;MAXZ:56
;Generated with Cura_SteamEngine 4.4.1
M140 S60
M105
M190 S60
M104 S200
M105
M109 S200
M82 ;absolute extrusion mode
G21 ;metric values
G90 ;absolute positioning
M82 ;set extruder to absolute mode
M107 ;start with the fan off
G28 X0 Y0 ;move X/Y to min endstops
G28 Z0 ;move Z to min endstops
M84 ;steppers off
M0 S12 ;wait 12 seconds
M17 ;turn steppers on
G1 Z10.0 F300 ;move the platform down 10mm
G92 E0 ;zero the extruded length
G1 F200 E8 ;extrude 8mm of feed stock
G92 E0 ;zero the extruded length again
M0 S5 ;wait 5 seconds
G1 F9000
M117 Printing...
G92 E0
G92 E0
G1 F1500 E-6.5
;LAYER_COUNT:558
;LAYER:0
M107
G0 F3600 X97.058 Y97.063 Z0.3
;TYPE:SKIRT
G1 F1500 E0
G1 X97.609 Y96.564 E0.03709
G1 X99.198 Y95.257 E0.13973
G1 X99.833 Y94.787 E0.17915
G1 X100.464 Y94.409 E0.21585
G1 X102.295 Y93.426 E0.31953
G1 X103.008 Y93.088 E0.35889
G1 X103.722 Y92.833 E0.39672
G1 X105.689 Y92.237 E0.49926
G1 X106.456 Y92.047 E0.53868
G1 X107.186 Y91.94 E0.57549
G1 X109.235 Y91.738 E0.67821
G1 X110.024 Y91.7 E0.71762
G1 X110.766 Y91.738 E0.75469
G1 X112.814 Y91.94 E0.85736
G1 X113.595 Y92.057 E0.89676
G1 X114.307 Y92.236 E0.93338
G1 X116.244 Y92.822 E1.03435
G1 X116.987 Y93.089 E1.07374
G1 X117.645 Y93.4 E1.11005
G1 X119.495 Y94.383 E1.21456
G1 X120.173 Y94.788 E1.25396
G1 X120.781 Y95.239 E1.29173
G1 X122.358 Y96.532 E1.39347
G1 X122.942 Y97.063 E1.43285
G1 X123.436 Y97.609 E1.46959
G1 X124.743 Y99.198 E1.57223
G1 X125.213 Y99.833 E1.61165
G1 X125.592 Y100.465 E1.64841
G1 X126.567 Y102.282 E1.75129
G1 X126.905 Y102.996 E1.7907
G1 X127.155 Y103.694 E1.82769
G1 X127.759 Y105.674 E1.93097
G1 X127.95 Y106.44 E1.97035
G1 X128.06 Y107.184 E2.00787
G1 X128.262 Y109.232 E2.11055
G1 X128.3 Y110.021 E2.14995
G1 X128.262 Y110.763 E2.18702
G1 X128.06 Y112.814 E2.28984
G1 X127.943 Y113.594 E2.32919
G1 X127.763 Y114.31 E2.36602
G1 X127.167 Y116.278 E2.46861
G1 X126.9 Y117.021 E2.508
G1 X126.581 Y117.693 E2.54511
G1 X125.617 Y119.497 E2.64716
G1 X125.21 Y120.174 E2.68657
G1 X124.774 Y120.761 E2.72305
G1 X123.472 Y122.352 E2.82562
G1 X122.942 Y122.937 E2.865
G1 X122.391 Y123.436 E2.90208
G1 X120.802 Y124.743 E3.00473
G1 X120.167 Y125.213 E3.04415
G1 X119.536 Y125.591 E3.08084
G1 X117.705 Y126.574 E3.18452
G1 X116.992 Y126.912 E3.22389
G1 X116.278 Y127.167 E3.26172
G1 X114.311 Y127.763 E3.36426
G1 X113.544 Y127.953 E3.40368
G1 X112.814 Y128.06 E3.44049
G1 X110.765 Y128.262 E3.54321
G1 X109.976 Y128.3 E3.58262
G1 X109.234 Y128.262 E3.61968
G1 X107.186 Y128.06 E3.72235
G1 X106.405 Y127.943 E3.76175
G1 X105.693 Y127.764 E3.79838
G1 X103.756 Y127.178 E3.89934
G1 X103.013 Y126.911 E3.93873
G1 X102.355 Y126.6 E3.97504
G1 X100.505 Y125.617 E4.07956
G1 X99.827 Y125.212 E4.11896
G1 X99.219 Y124.76 E4.15676
G1 X97.64 Y123.465 E4.25864
G1 X97.055 Y122.934 E4.29806
G1 X96.562 Y122.389 E4.33472
G1 X95.256 Y120.801 E4.4373
G1 X94.786 Y120.166 E4.47671
G1 X94.406 Y119.533 E4.51355
G1 X93.432 Y117.717 E4.61635
G1 X93.095 Y117.003 E4.65574
G1 X92.845 Y116.305 E4.69273
G1 X92.241 Y114.324 E4.79606
G1 X92.049 Y113.558 E4.83546
G1 X91.94 Y112.815 E4.87292
G1 X91.738 Y110.768 E4.97554
G1 X91.7 Y109.979 E5.01495
G1 X91.738 Y109.238 E5.05197
G1 X91.94 Y107.186 E5.15484
G1 X92.057 Y106.405 E5.19424
G1 X92.237 Y105.688 E5.23112
G1 X92.833 Y103.721 E5.33366
G1 X93.1 Y102.978 E5.37305
G1 X93.419 Y102.305 E5.41021
G1 X94.384 Y100.5 E5.51232
G1 X94.791 Y99.824 E5.55169
G1 X95.226 Y99.239 E5.58806
G1 X96.527 Y97.649 E5.69055
G1 X97.058 Y97.063 E5.73
G0 F3600 X97.354 Y97.333
G1 F1500 X97.863 Y96.873 E5.76423
G1 X99.452 Y95.566 E5.86688
G1 X100.071 Y95.109 E5.90527
G1 X100.653 Y94.761 E5.9391
G1 X102.484 Y93.778 E6.04278
G1 X103.179 Y93.45 E6.08112
G1 X103.838 Y93.216 E6.11601
G1 X105.805 Y92.62 E6.21855
G1 X106.552 Y92.435 E6.25694
G1 X107.225 Y92.338 E6.29087
G1 X109.274 Y92.136 E6.39359
G1 X110.042 Y92.1 E6.43194
G1 X110.726 Y92.136 E6.46612
G1 X112.774 Y92.338 E6.56879
G1 X113.535 Y92.453 E6.60718
G1 X114.191 Y92.619 E6.64094
G1 X116.128 Y93.205 E6.74191
G1 X116.851 Y93.466 E6.78026
G1 X117.457 Y93.753 E6.81371
G1 X119.307 Y94.736 E6.91823
G1 X119.967 Y95.132 E6.95663
G1 X120.527 Y95.549 E6.99146
G1 X122.104 Y96.842 E7.0932
G1 X122.673 Y97.359 E7.13156
G1 X123.127 Y97.863 E7.1654
G1 X124.434 Y99.452 E7.26805
G1 X124.891 Y100.071 E7.30643
G1 X125.24 Y100.654 E7.34033
G1 X126.215 Y102.471 E7.44321
G1 X126.543 Y103.167 E7.48159
G1 X126.772 Y103.811 E7.51569
G1 X127.376 Y105.791 E7.61897
G1 X127.562 Y106.537 E7.65733
G1 X127.662 Y107.224 E7.69196
G1 X127.864 Y109.272 E7.79464
G1 X127.9 Y110.04 E7.83299
G1 X127.864 Y110.723 E7.86712
G1 X127.662 Y112.774 E7.96993
G1 X127.547 Y113.535 E8.00833
G1 X127.38 Y114.194 E8.04225
G1 X126.784 Y116.162 E8.14484
G1 X126.523 Y116.885 E8.18319
G1 X126.229 Y117.505 E8.21742
G1 X125.265 Y119.309 E8.31947
G1 X124.867 Y119.967 E8.35783
G1 X124.465 Y120.508 E8.39146
G1 X123.163 Y122.099 E8.49402
G1 X122.645 Y122.668 E8.53241
G1 X122.137 Y123.127 E8.56657
G1 X120.548 Y124.434 E8.66922
G1 X119.929 Y124.891 E8.7076
G1 X119.347 Y125.239 E8.74144
G1 X117.516 Y126.222 E8.84512
G1 X116.821 Y126.55 E8.88346
G1 X116.162 Y126.784 E8.91835
G1 X114.195 Y127.38 E9.02089
G1 X113.448 Y127.565 E9.05928
G1 X112.775 Y127.662 E9.0932
G1 X110.726 Y127.864 E9.19592
G1 X109.958 Y127.9 E9.23428
G1 X109.274 Y127.864 E9.26845
G1 X107.226 Y127.662 E9.37112
G1 X106.465 Y127.547 E9.40952
G1 X105.809 Y127.381 E9.44328
G1 X103.872 Y126.795 E9.54424
G1 X103.149 Y126.534 E9.58259
G1 X102.543 Y126.247 E9.61605
G1 X100.693 Y125.264 E9.72056
G1 X100.033 Y124.868 E9.75896
G1 X99.472 Y124.451 E9.79384
G1 X97.893 Y123.156 E9.89572
G1 X97.325 Y122.638 E9.93407
G1 X96.871 Y122.134 E9.96791
G1 X95.565 Y120.546 E10.07049
G1 X95.108 Y119.928 E10.10884
G1 X94.759 Y119.344 E10.14278
G1 X93.785 Y117.528 E10.24559
G1 X93.457 Y116.832 E10.28397
G1 X93.228 Y116.188 E10.31807
G1 X92.624 Y114.207 E10.4214
G1 X92.438 Y113.461 E10.45976
G1 X92.338 Y112.776 E10.49429
G1 X92.136 Y110.729 E10.59691
G1 X92.1 Y109.96 E10.63532
G1 X92.136 Y109.277 E10.66944
G1 X92.338 Y107.225 E10.77231
G1 X92.453 Y106.465 E10.81066
G1 X92.62 Y105.804 E10.84468
G1 X93.216 Y103.837 E10.94722
G1 X93.477 Y103.114 E10.98556
G1 X93.772 Y102.494 E11.01982
G1 X94.737 Y100.689 E11.12193
G1 X95.134 Y100.031 E11.16027
G1 X95.536 Y99.492 E11.19382
G1 X96.837 Y97.902 E11.29632
G1 X97.354 Y97.333 E11.33467
G0 F3600 X97.65 Y97.602
G1 F1500 X98.117 Y97.182 E11.36601
G1 X99.706 Y95.875 E11.46865
G1 X100.309 Y95.431 E11.50601
G1 X100.842 Y95.114 E11.53695
G1 X102.673 Y94.131 E11.64063
G1 X103.35 Y93.812 E11.67797
G1 X103.954 Y93.599 E11.70992
G1 X105.921 Y93.003 E11.81246
G1 X106.648 Y92.824 E11.84982
G1 X107.264 Y92.736 E11.88086
G1 X109.313 Y92.534 E11.98358
G1 X110.061 Y92.5 E12.02094
G1 X110.687 Y92.534 E12.05221
G1 X112.735 Y92.736 E12.15489
G1 X113.475 Y92.849 E12.19223
G1 X114.075 Y93.002 E12.22312
G1 X116.012 Y93.588 E12.32409
G1 X116.715 Y93.842 E12.36138
G1 X117.27 Y94.106 E12.39204
G1 X119.12 Y95.089 E12.49656
G1 X119.76 Y95.475 E12.53385
G1 X120.273 Y95.858 E12.56579
G1 X121.85 Y97.151 E12.66753
G1 X122.403 Y97.655 E12.70486
G1 X122.818 Y98.117 E12.73584
G1 X124.125 Y99.706 E12.83849
G1 X124.569 Y100.309 E12.87585
G1 X124.887 Y100.843 E12.90685
G1 X125.862 Y102.66 E13.00973
G1 X126.18 Y103.337 E13.04705
G1 X126.389 Y103.928 E13.07832
G1 X126.993 Y105.908 E13.1816
G1 X127.173 Y106.634 E13.21891
G1 X127.264 Y107.263 E13.25062
G1 X127.466 Y109.311 E13.35329
G1 X127.5 Y110.058 E13.3906
G1 X127.466 Y110.684 E13.42188
G1 X127.264 Y112.735 E13.5247
G1 X127.151 Y113.475 E13.56204
G1 X126.998 Y114.078 E13.59308
G1 X126.402 Y116.046 E13.69567
G1 X126.147 Y116.749 E13.73298
G1 X125.876 Y117.316 E13.76433
G1 X124.912 Y119.12 E13.86638
G1 X124.525 Y119.76 E13.90369
G1 X124.155 Y120.254 E13.93448
G1 X122.853 Y121.845 E14.03705
G1 X122.349 Y122.398 E14.07438
G1 X121.883 Y122.818 E14.10567
G1 X120.294 Y124.125 E14.20832
G1 X119.691 Y124.569 E14.24568
G1 X119.158 Y124.886 E14.27662
G1 X117.327 Y125.869 E14.3803
G1 X116.65 Y126.188 E14.41764
G1 X116.046 Y126.401 E14.44959
G1 X114.079 Y126.997 E14.55213
G1 X113.352 Y127.176 E14.58948
G1 X112.736 Y127.264 E14.62053
G1 X110.687 Y127.466 E14.72325
G1 X109.939 Y127.5 E14.76061
G1 X109.313 Y127.466 E14.79188
G1 X107.265 Y127.264 E14.89455
G1 X106.525 Y127.151 E14.9319
G1 X105.925 Y126.998 E14.96279
G1 X103.988 Y126.412 E15.06375
G1 X103.285 Y126.158 E15.10105
G1 X102.73 Y125.894 E15.13171
G1 X100.88 Y124.911 E15.23623
G1 X100.24 Y124.525 E15.27351
G1 X99.726 Y124.142 E15.30549
G1 X98.147 Y122.847 E15.40738
G1 X97.595 Y122.342 E15.4447
G1 X97.18 Y121.88 E15.47568
G1 X95.874 Y120.292 E15.57826
G1 X95.43 Y119.69 E15.61558
G1 X95.111 Y119.155 E15.64666
G1 X94.137 Y117.339 E15.74947
G1 X93.819 Y116.661 E15.78683
G1 X93.61 Y116.071 E15.81805
G1 X93.006 Y114.09 E15.92138
G1 X92.827 Y113.364 E15.95868
G1 X92.736 Y112.736 E15.99034
G1 X92.534 Y110.689 E16.09296
G1 X92.5 Y109.942 E16.13027
G1 X92.534 Y109.316 E16.16155
G1 X92.736 Y107.264 E16.26442
G1 X92.849 Y106.525 E16.30171
G1 X93.003 Y105.92 E16.33286
G1 X93.599 Y103.953 E16.4354
G1 X93.854 Y103.25 E16.47271
G1 X94.125 Y102.683 E16.50406
G1 X95.09 Y100.878 E16.60617
G1 X95.477 Y100.238 E16.64349
G1 X95.845 Y99.745 E16.67418
G1 X97.146 Y98.155 E16.77668
G1 X97.65 Y97.602 E16.81401
G0 F3600 X97.946 Y97.872
G1 F1500 X98.371 Y97.491 E16.84248
G1 X99.96 Y96.184 E16.94513
G1 X100.546 Y95.754 E16.98139
G1 X101.031 Y95.466 E17.00953
G1 X102.862 Y94.483 E17.11321
G1 X103.52 Y94.175 E17.14946
G1 X104.07 Y93.982 E17.17854
G1 X106.037 Y93.386 E17.28108
G1 X106.743 Y93.214 E17.31733
G1 X107.303 Y93.134 E17.34555
G1 X109.352 Y92.932 E17.44827
G1 X110.078 Y92.9 E17.48453
G1 X110.648 Y92.932 E17.51301
G1 X112.696 Y93.134 E17.61568
G1 X113.414 Y93.245 E17.65193
G1 X113.959 Y93.385 E17.68
G1 X115.896 Y93.971 E17.78097
G1 X116.579 Y94.219 E17.81722
G1 X117.082 Y94.46 E17.84504
G1 X118.932 Y95.443 E17.94956
G1 X119.554 Y95.818 E17.9858
G1 X120.02 Y96.167 E18.01484
G1 X121.597 Y97.46 E18.11658
G1 X122.132 Y97.951 E18.15281
G1 X122.509 Y98.371 E18.18097
G1 X123.816 Y99.96 E18.28362
G1 X124.246 Y100.546 E18.31988
G1 X124.535 Y101.032 E18.34809
G1 X125.51 Y102.849 E18.45097
G1 X125.817 Y103.507 E18.48719
G1 X126.007 Y104.044 E18.51561
G1 X126.611 Y106.024 E18.61889
G1 X126.784 Y106.73 E18.65515
G1 X126.866 Y107.302 E18.68398
G1 X127.068 Y109.35 E18.78665
G1 X127.1 Y110.076 E18.82291
G1 X127.068 Y110.645 E18.85134
G1 X126.866 Y112.696 E18.95416
G1 X126.755 Y113.414 E18.9904
G1 X126.615 Y113.962 E19.01862
G1 X126.019 Y115.93 E19.12121
G1 X125.77 Y116.613 E19.15748
G1 X125.523 Y117.128 E19.18597
G1 X124.559 Y118.932 E19.28802
G1 X124.182 Y119.552 E19.32422
G1 X123.846 Y120.001 E19.3522
G1 X122.544 Y121.592 E19.45477
G1 X122.053 Y122.128 E19.49103
G1 X121.629 Y122.509 E19.51947
G1 X120.04 Y123.816 E19.62212
G1 X119.454 Y124.246 E19.65838
G1 X118.969 Y124.534 E19.68652
G1 X117.138 Y125.517 E19.7902
G1 X116.48 Y125.825 E19.82645
G1 X115.93 Y126.018 E19.85553
G1 X113.963 Y126.614 E19.95807
G1 X113.257 Y126.786 E19.99432
G1 X112.697 Y126.866 E20.02254
G1 X110.648 Y127.068 E20.12526
G1 X109.922 Y127.1 E20.16152
G1 X109.352 Y127.068 E20.19
G1 X107.304 Y126.866 E20.29267
G1 X106.586 Y126.755 E20.32892
G1 X106.041 Y126.615 E20.35699
G1 X104.104 Y126.029 E20.45796
G1 X103.421 Y125.781 E20.49421
G1 X102.918 Y125.54 E20.52203
G1 X101.068 Y124.557 E20.62655
G1 X100.446 Y124.182 E20.66279
G1 X99.98 Y123.832 E20.69186
G1 X98.401 Y122.537 E20.79374
G1 X97.865 Y122.046 E20.83001
G1 X97.488 Y121.626 E20.85817
G1 X96.182 Y120.038 E20.96074
G1 X95.753 Y119.453 E20.99694
G1 X95.464 Y118.966 E21.02519
G1 X94.49 Y117.15 E21.128
G1 X94.182 Y116.491 E21.16429
G1 X93.993 Y115.955 E21.19264
G1 X93.389 Y113.974 E21.29597
G1 X93.216 Y113.268 E21.33223
G1 X93.134 Y112.697 E21.36101
G1 X92.932 Y110.65 E21.46363
G1 X92.9 Y109.924 E21.49989
G1 X92.932 Y109.355 E21.52832
G1 X93.134 Y107.303 E21.63119
G1 X93.245 Y106.586 E21.66739
G1 X93.386 Y106.036 E21.69572
G1 X93.982 Y104.069 E21.79826
G1 X94.23 Y103.387 E21.83446
G1 X94.478 Y102.871 E21.86302
G1 X95.443 Y101.066 E21.96514
G1 X95.82 Y100.446 E22.00134
G1 X96.155 Y99.998 E22.02925
G1 X97.456 Y98.408 E22.13174
G1 X97.946 Y97.872 E22.16797
G0 F3600 X98.242 Y98.143
G1 F1500 X98.625 Y97.8 E22.19362
G1 X100.214 Y96.493 E22.29627
G1 X100.783 Y96.077 E22.33144
G1 X101.22 Y95.818 E22.35678
G1 X103.051 Y94.835 E22.46046
G1 X103.69 Y94.538 E22.49562
G1 X104.186 Y94.364 E22.52184
G1 X106.153 Y93.768 E22.62438
G1 X106.837 Y93.603 E22.65948
G1 X107.343 Y93.532 E22.68498
G1 X109.392 Y93.33 E22.7877
G1 X110.095 Y93.301 E22.8228
G1 X110.609 Y93.33 E22.84848
G1 X112.657 Y93.532 E22.95115
G1 X113.352 Y93.641 E22.98625
G1 X113.843 Y93.768 E23.01155
G1 X115.78 Y94.354 E23.11252
G1 X116.441 Y94.595 E23.14762
G1 X116.894 Y94.813 E23.1727
G1 X118.744 Y95.796 E23.27722
G1 X119.346 Y96.161 E23.31234
G1 X119.766 Y96.477 E23.33856
G1 X121.343 Y97.77 E23.4403
G1 X121.861 Y98.246 E23.4754
G1 X122.2 Y98.625 E23.50077
G1 X123.507 Y100.214 E23.60342
G1 X123.923 Y100.783 E23.63858
G1 X124.182 Y101.221 E23.66397
G1 X125.157 Y103.038 E23.76684
G1 X125.454 Y103.677 E23.802
G1 X125.624 Y104.161 E23.82759
G1 X126.228 Y106.141 E23.93087
G1 X126.395 Y106.825 E23.966
G1 X126.468 Y107.341 E23.992
G1 X126.67 Y109.389 E24.09467
G1 X126.699 Y110.093 E24.12982
G1 X126.67 Y110.606 E24.15545
G1 X126.468 Y112.657 E24.25827
G1 X126.359 Y113.352 E24.29337
G1 X126.232 Y113.846 E24.31882
G1 X125.636 Y115.814 E24.42141
G1 X125.394 Y116.475 E24.45652
G1 X125.17 Y116.939 E24.48223
G1 X124.206 Y118.743 E24.58428
G1 X123.84 Y119.344 E24.61938
G1 X123.536 Y119.748 E24.64461
G1 X122.234 Y121.339 E24.74717
G1 X121.758 Y121.857 E24.78227
G1 X121.375 Y122.2 E24.80792
G1 X119.786 Y123.507 E24.91057
G1 X119.217 Y123.923 E24.94573
G1 X118.78 Y124.182 E24.97108
G1 X116.949 Y125.165 E25.07476
G1 X116.31 Y125.462 E25.10991
G1 X115.814 Y125.636 E25.13614
G1 X113.847 Y126.232 E25.23868
G1 X113.163 Y126.397 E25.27378
G1 X112.657 Y126.468 E25.29927
G1 X110.608 Y126.67 E25.40199
G1 X109.905 Y126.699 E25.4371
G1 X109.391 Y126.67 E25.46278
G1 X107.343 Y126.468 E25.56545
G1 X106.648 Y126.359 E25.60055
G1 X106.157 Y126.232 E25.62585
G1 X104.22 Y125.646 E25.72681
G1 X103.559 Y125.405 E25.76192
G1 X103.106 Y125.187 E25.787
G1 X101.256 Y124.204 E25.89151
G1 X100.654 Y123.839 E25.92664
G1 X100.233 Y123.523 E25.9529
G1 X98.654 Y122.228 E26.05478
G1 X98.136 Y121.751 E26.08991
G1 X97.797 Y121.372 E26.11528
G1 X96.491 Y119.784 E26.21786
G1 X96.076 Y119.216 E26.25295
G1 X95.816 Y118.776 E26.27845
G1 X94.842 Y116.96 E26.38126
G1 X94.545 Y116.322 E26.41637
G1 X94.376 Y115.838 E26.44195
G1 X93.772 Y113.857 E26.54527
G1 X93.605 Y113.173 E26.5804
G1 X93.532 Y112.658 E26.60635
G1 X93.33 Y110.611 E26.70897
G1 X93.301 Y109.907 E26.74412
G1 X93.33 Y109.395 E26.76971
G1 X93.532 Y107.343 E26.87258
G1 X93.64 Y106.647 E26.90772
G1 X93.768 Y106.152 E26.93322
G1 X94.364 Y104.185 E27.03576
G1 X94.606 Y103.524 E27.07088
G1 X94.83 Y103.06 E27.09659
G1 X95.795 Y101.255 E27.1987
G1 X96.162 Y100.654 E27.23383
G1 X96.465 Y100.252 E27.25895
G1 X97.766 Y98.662 E27.36144
G1 X98.242 Y98.143 E27.39658
G0 F3600 X98.537 Y98.414
G1 F1500 X98.88 Y98.109 E27.41948
G1 X100.469 Y96.802 E27.52212
G1 X101.019 Y96.401 E27.55608
G1 X101.41 Y96.171 E27.57871
G1 X103.241 Y95.188 E27.6824
G1 X103.858 Y94.902 E27.71632
G1 X104.302 Y94.747 E27.73979
G1 X106.269 Y94.151 E27.84233
G1 X106.931 Y93.992 E27.87629
G1 X107.382 Y93.93 E27.89901
G1 X109.431 Y93.728 E28.00173
G1 X110.111 Y93.701 E28.03568
G1 X110.569 Y93.728 E28.05857
G1 X112.617 Y93.93 E28.16124
G1 X113.29 Y94.036 E28.19523
G1 X113.727 Y94.15 E28.21776
G1 X115.664 Y94.736 E28.31872
G1 X116.304 Y94.972 E28.35275
G1 X116.707 Y95.166 E28.37507
G1 X118.557 Y96.149 E28.47959
G1 X119.138 Y96.503 E28.51353
G1 X119.512 Y96.786 E28.53693
G1 X121.089 Y98.079 E28.63867
G1 X121.59 Y98.541 E28.67267
G1 X121.891 Y98.88 E28.69529
G1 X123.198 Y100.469 E28.79793
G1 X123.599 Y101.019 E28.83189
